de/skin/frontend/kapten/default/src/images/icons/slider_right_border.svg

<svg id="Layer_1" xmlns="http://www.w3.org/2000/svg" viewBox="0 0 37.3 69"><style>.st0{fill:#374858}.st1{opacity:.5;fill:#fff;enable-background:new}</style><path class="st0" d="M34.5 34.6L34 35.1 4.9 65.1 4.2 65.8 3.7 64.9 2.8 63.4 2.5 62.9 2.9 62.5 30 34.6 2.9 6.7 2.5 6.3 2.8 5.8 3.7 4.2 4.2 3.3 4.9 4 34 34z"/><path class="st1" d="M4.2 3.3l.7.7L34 34l.5.5-.5.6-29.1 30-.7.7-.5-.8-.9-1.5-.3-.5.4-.4 27.1-28L2.9 6.7l-.4-.4.3-.5.9-1.6.5-.9M3.8 0L2.4 2.3l-.4.9-.9 1.6-.3.5L0 6.6l1.1 1.1.4.4 25.7 26.5L1.5 61.1l-.4.4L0 62.6.8 64l.3.5L2 66l.5.8L3.8 69l1.8-1.9.7-.7 29.1-30 .5-.5 1.3-1.4-1.3-1.4-.5-.5-29.1-30-.7-.7L3.8 0z"/></svg>

<?xml version="1.0" encoding="utf-8"?>
<!-- Generator: Adobe Illustrator 21.0.2, SVG Export Plug-In . SVG Version: 6.00 Build 0)  -->
<svg version="1.1"
	 id="Layer_1" inkscape:version="0.91 r13725" sodipodi:docname="pure_slider_left.svg" xmlns:cc="http://creativecommons.org/ns#" xmlns:dc="http://purl.org/dc/elements/1.1/" xmlns:inkscape="http://www.inkscape.org/namespaces/inkscape" xmlns:rdf="http://www.w3.org/1999/02/22-rdf-syntax-ns#" xmlns:sodipodi="http://sodipodi.sourceforge.net/DTD/sodipodi-0.dtd" xmlns:svg="http://www.w3.org/2000/svg"
	 xmlns="http://www.w3.org/2000/svg" xmlns:xlink="http://www.w3.org/1999/xlink" x="0px" y="0px" viewBox="0 0 37.3 69"
	 style="enable-background:new 0 0 37.3 69;" xml:space="preserve">
<style type="text/css">
	.st0{fill:#374858;}
	.st1{opacity:0.5;fill:#FFFFFF;enable-background:new    ;}
</style>
<sodipodi:namedview  bordercolor="#666666" borderopacity="1" fit-margin-bottom="0" fit-margin-left="0" fit-margin-right="0" fit-margin-top="0" gridtolerance="10" guidetolerance="10" id="namedview5" inkscape:current-layer="Layer_1" inkscape:cx="13.5" inkscape:cy="29.1" inkscape:pageopacity="0" inkscape:pageshadow="2" inkscape:window-height="1528" inkscape:window-maximized="0" inkscape:window-width="2277" inkscape:window-x="0" inkscape:window-y="32" inkscape:zoom="2.36" objecttolerance="10" pagecolor="#ffffff" showgrid="false">
	</sodipodi:namedview>
<g>
	<polygon class="st0" points="34.5,34.6 34,35.1 4.9,65.1 4.2,65.8 3.7,64.9 2.8,63.4 2.5,62.9 2.9,62.5 30,34.6 2.9,6.7 2.5,6.3 
		2.8,5.8 3.7,4.2 4.2,3.3 4.9,4 34,34 	"/>
	<path class="st1" d="M4.2,3.3L4.9,4L34,34l0.5,0.5L34,35.1l-29.1,30l-0.7,0.7L3.7,65l-0.9-1.5L2.5,63l0.4-0.4l27.1-28L2.9,6.7
		L2.5,6.3l0.3-0.5l0.9-1.6L4.2,3.3 M3.8,0L2.4,2.3L2,3.2L1.1,4.8L0.8,5.3L0,6.6l1.1,1.1l0.4,0.4l25.7,26.5L1.5,61.1l-0.4,0.4L0,62.6
		L0.8,64l0.3,0.5L2,66l0.5,0.8L3.8,69l1.8-1.9l0.7-0.7l29.1-30l0.5-0.5l1.3-1.4l-1.3-1.4l-0.5-0.5L6.3,2.6L5.6,1.9L3.8,0L3.8,0z"/>
</g>
</svg>
